X: 9295
T: Dance Your Heart Away
R: jig
M: 6/8
K: Gmajor
F|:G3 B3|BGE EDB,|F3 A3|AFD DEF|
G2 A B2 G|AFD DEF|GAB AFD|1 E3 F3:|2 E3 G3||
BcB BAB|ded dBG|ABc cde|dcA AGA|
B2 c d2 f|fef gdB|AGA B2 A|G2 A B2 c|
d3 f3|fef gdB|AGA BAG|ABA Aag|
fef gdB|ABA ABc|BdB cAF|G3 GDF||

